!!!!SEGMENT: pl-sa--l-1636--064_anonim--fuga.krn
!!!cenid: 17xx:771
!!!COM: Anonim
!!!COM-rismID:
!!!CDT:
!!!CNT:
!!!OTL: Fuga
!!!PDT:
!!!AGN: Secular; Fugue
!!!SMS-siglum: PL-SA
!!!SMS-shelfmark: L 1636
!!!SMS-shelfwork: 064 W
!!!SMS-variant:
!!!SMS-altvar:
!!!NIFC-rismSourceID: 1001076867
!!!NIFC-islandoraID:
!!!URL-pdf-islandora:
!!!URL-scan:
!!!ONB-nifc: 18v, skan 0022, s. 1-4
!!!AIN: 1 empty
!!!key:
**kern	**fba	**kern
*part1	*	*part1
*staff2	*	*staff1
*Iempty	*	*Iempty
*I"	*	*I"
*clefC3	*	*clefG2
*k[]	*	*k[]
*G:	*	*G:
*M2/2	*	*M2/2
*met(c|)	*	*met(c|)
=1	=1	=1
*all\right	*	*all\right
*	*	*2\right
!	!	!LO:TX:b:t=Fuga
1r	.	2dd\
.	.	4dd\
.	.	4dd\
=2	=2	=2
2g\	.	8b\L
.	.	8a\
.	.	8b\
.	.	8cc\J
4g\	.	4dd\
4g\	.	4dd\
=3	=3	=3
8e\L	.	2cc\
8d\	.	.
8e\	.	.
8f\J	.	.
4g\	.	2b/
4g\	.	.
=4	=4	=4
*^	*	*
*2\right	*	*	*
2f\	2ryy	.	8a/L
.	.	.	8b/J
.	.	.	8cc\L
.	.	.	8dd\J
2g/	2e\	.	8ee\L
.	.	.	8ff#X\J
!	!	!	!LO:TX:a:t=P:problem=mixed beam
.	.	.	8gg\L
.	.	.	16b/L
.	.	.	16cc/JJ
*v	*v	*	*
=5	=5	=5
*	*	*^
2d\	.	4dd 4a/	4f#X\
.	.	4b/	[>4g\
4d\	.	2a/	4g\]
4d\	.	.	4f#X\
=6	=6	=6	=6
*^	*	*	*
8B/L	2G\	.	2b/	2g\
8A/	.	.	.	.
8B/	.	.	.	.
8c/J	.	.	.	.
4d/	4G\	.	2b/	2g\
4d/	4G\	.	.	.
*v	*v	*	*	*
!!LO:LB:g=original
=7	=7	=7	=7
*clefC4	*	*	*
8E/L	.	2cc/	8e\L
8D/	.	.	8f#X\
8E/	.	.	8g\
8F/J	.	.	8a\J
4G/	.	8b/L	8g\L
.	.	8cc/	8a\
4G/	.	8dd/	8b\
.	.	8b/J	8g\J
*	*	*v	*v
=8	=8	=8
*^	*	*
8A/L	2F\	.	2a/
8G/	.	.	.
8A/	.	.	.
8B/J	.	.	.
8c/L	2E\	.	2g/
8G/J	.	.	.
[4c/	.	.	.
=9	=9	=9	=9
4c/]	2D\	.	4f#X/
4B/	.	.	2g/
2A/	4D\	.	.
.	4D\	.	4f#X/
*v	*v	*	*
=10	=10	=10
*clefF4	*	*
*	*	*^
8BB/L	.	2g/	4.d\
8AA/	.	.	.
8BB/	.	.	.
8C/J	.	.	8e\
4D/	.	2a/	2f#X\
4D/	.	.	.
*	*	*v	*v
=11	=11	=11
*^	*	*
2E/	2C\	.	8e/L
.	.	.	8f#X/
.	.	.	8g/
.	.	.	8a/J
!	!	!	!LO:TX:a:t=P:problem=mixed beam
2D/	2BB\	.	8b\L
.	.	.	8cc\
.	.	.	8dd\
.	.	.	16f#X/L
.	.	.	16g/JJ
*v	*v	*	*
=12	=12	=12
*	*	*^
8AA/L	.	2cc 2a/	4.e\
8BB/	.	.	.
8C/	.	.	.
8D/J	.	.	8f#X\
!LO:TX:a:t=P:problem=mixed beam	!	!	!
8E\L	.	2b/	2g\
!LO:TX:a:t=P:problem=# above	!	!	!
8F#X\	.	.	.
8G\	.	.	.
16BB/L	.	.	.
16C/JJ	.	.	.
!!LO:LB:g=original
=13	=13	=13	=13
4D/	.	4a/	4f#X\
4BB/	.	4b/	[4g\
4C/	.	2a/	4g\]
4D/	.	.	4f#\
*	*	*v	*v
=14	=14	=14
1G 1D 1BB 1GG	.	4g/
!	!	!LO:TX:a:t=P:problem=dwie kolejne nuty słabo widoczne, zapis prawdopodobny
.	.	4dd\
.	.	4dd\
.	.	4dd\
=15	=15	=15
*	*	*^
2G\	.	8b/L	8g\L
.	.	8a/	8f#X\
.	.	8b/	8g\
.	.	8cc/J	8a\J
4G\	.	4dd/	4b\
4G\	.	4dd/	4b\
=16	=16	=16	=16
8E\L	.	2cc/	4.g\
8D\	.	.	.
8E\	.	.	.
8F\J	.	.	8a\
4G\	.	2b/	2g\
4G\	.	.	.
=17	=17	=17	=17
*^	*	*	*
2A/	2F\	.	8a/L	1ryy
.	.	.	8b/	.
.	.	.	8cc/	.
.	.	.	8dd/J	.
2G/	2E\	.	8ee\L	.
.	.	.	8ff\	.
.	.	.	8gg\	.
.	.	.	16b\L	.
.	.	.	16cc\JJ	.
*v	*v	*	*	*
=18	=18	=18	=18
8D\L	.	2ff 2dd/	4.a\
8E\	.	.	.
8F\	.	.	.
8G\J	.	.	8b\
8A\L	.	2ee/	2cc\
8B\	.	.	.
8c\	.	.	.
16C\L	.	.	.
16D\JJ	.	.	.
=19	=19	=19	=19
4G\	.	4dd/	4b\
4E\	6	4ee/	4cc\
4F\	6 5	2dd/	4cc\
4G\	4	.	4b\
.	3	.	.
!!LO:LB:g=original
=20	=20	=20	=20
!LO:TX:a:t=P:problem=mixed beam	!	!	!
16C/LL	.	2ee/	2cc\
16c\	.	.	.
16B\	.	.	.
16A\JJ	.	.	.
16G\LL	.	.	.
16F\	.	.	.
16E\	.	.	.
16D\JJ	.	.	.
8C\L	.	[2cc/	8e\L
8D\	.	.	8f#X\
8E\	.	.	8g\
8C\J	.	.	8e\J
=21	=21	=21	=21
2D/	.	4cc/]	4f#X\
.	.	4b/	4g\
4D/	.	2a/	4g\
4D/	.	.	4f#X\
=22	=22	=22	=22
8BB/L	.	2b/	2g\
8AA/	.	.	.
8BB/	.	.	.
8C/J	.	.	.
4D/	.	2a/	2f#X\
4D/	.	.	.
*	*	*v	*v
=23	=23	=23
*^	*	*
2E/	2C\	.	8e/L
.	.	.	8f#X/
.	.	.	8g/
.	.	.	8a/J
!	!	!	!LO:TX:a:t=P:problem=mixed beam
2D/	2BB\	.	8b\L
.	.	.	8cc\
.	.	.	8dd\
.	.	.	16f#X/L
.	.	.	16g/JJ
*v	*v	*	*
=24	=24	=24
*	*	*^
8AA/L	.	2cc 2a/	4.e\
8BB/	.	.	.
8C/	.	.	.
8D/J	.	.	8f#X\
!LO:TX:a:t=P:problem=mixed beam	!	!	!
8E\L	.	2b/	2g\
8F#X\	.	.	.
8G\	.	.	.
16BB/L	.	.	.
16C/JJ	.	.	.
=25	=25	=25	=25
2D/	.	2a/	2f#X\
2BB/	.	2b/	2g\
=26-	=26	=26-	=26-
!	!	!	!LO:N:vis=4
2C/	.	1a	2g\
2D/	.	.	2f#X\
*	*	*v	*v
=27	=27	=27
!LO:TX:a:t=P:problem=takt ścieśniony, zapis prawdopodobny	!	!LO:TX:a:t=P:problem=takt ścieśniony, zapis prawdopodobny
0GG 0D 0G;	.	0g;
==	==	==
*-	*-	*-
!!!system-decoration: s1,s2
!!!RDF**kern: > = above
!!!ENC: Marta Lawrence
!!!END: 2020-12-08
!!!ENC: Tomasz Grochalski
!!!END: 2020-06-12
